X: 21242
M: 6/8
L: 1/8
K: Gm
fdB Bfd | cAF Fdc | {c}B>AG A^FD | (B3 A2) :|
|: d |\
g>ag {g}^f2d | g>ab {b}a2g |fdb dcB | f3 g>ab |\
fdB Bfd | cAF Fdc | {c}B>AG A^FD | (B3 A2) :|



